!!!Genre:	Skotshne
!!!Mode:	Freygish
!!!Listening/dance:	listening
!!!One_Mode:	yes
!!!Orig_tonic: unknown
**kern
*thru
*I"P1
*clefG2
*k[b-e-a-]
*G:frey
*M2/4
*>A
(16g
=1
(8qcc/
8.bnL))
(16gJk
(8qdd/
8.ccL))
(16gJk
=2
8.ddL)
(16gJk
8.ee-L)
(16gJk
=3
2dd)
=4
8r
8g
8bnL
8ddJ
=5
(16ggLL
16ff#X
16ffn
16eenJJ
16ee-XLL
16ddJ
8ccJ)
=6
8bnL
8a-J
8bL
(8qdd/
8ccJ)
=7
2bnt
=8
8r
8a-
8gtL
8fJ
=9
(8qg/
16fLL)
16en
16f
16gJJ
16a-LL
16gJ
8a-J
=10
(16ddLL
16ccJ
8bnJ)
(16a-LL
16gJ
8a-J)
=11
(16ddLL
16ccJ
8bnJ)
(16a-LL
16gJ
8fJ)
=12
4f
8r
8ff
=13
(16ff^LL
16ee-J
8ddJ)
(16ee-^LL
16ddJ
8ccJ)
=14
(16dd^LL
16ccJ
8bnJ)
(16cc^LL
16bJ
8a-J)
*>A1
=15
16g
4..g
=16
4..gg
*>A2
=17:|!
2g
=18||
*>B
8r
8g
8bnL
8ccJ
=19
(8qcc/
4dd)
4dd
=20
(16ddLL
16ffJ
8ee-J)
8ddL
8ccJ
=21
(8qcc/
2bn)
=22
8r
8g
8bnL
8ddJ
=23
(8qff#X/
4gg)
4dd
=24
(16ddLL
16ffnJ
8ee-J)
(8.ddL
16ccJk)
=25
(8qcc/
2bn)
=26
8r
8g
8bnL
8ddJ
=27
(8qdd/
8ccL)
8bnJ
8a-L
8gJ
=28
24ccLL
24dd
24ccJ
8bnJ
8a-L
8gJ
=29
(16gLL
16ccJ)
8ccJ
4f
=30
8r
8f
8gL
8a-J
=31
8ffL
8ee-J
24ddLL
24ee-
24ddJ
8ccJ
=32
8bnL
(8qdd/
8ccJ)
24bLL
24cc
24bJ
8a-J
=33
2g
=34
8r
8g
8bnL
8ddJ
=35
(8qff#X/
4gg)
4dd
=36
8ddL
(8qffn/
8ee-J)
32ddLLL
32ee-
32dd
32ee-J
16dd
16ccJJ
=37
2bn
=38
8r
8g
8bnL
8ddJ
=39
4gg
4dd
=40
((8qff/
8ee-L)
8ddJ)
(16ee-LL
16ddJ)
8ccJ
=41
(16ccLL
16ee-JJ)
4.dd
=42
8r
8g
8bnL
8ddJ
=43
24ccLL
24dd
24ccJ
8bnJ
8a-L
8gJ
=44
8ccL
8bnJ
8a-L
8gJ
=45
(16gLL
16ccJ
8ccJ
4f)
=46
8r
8f
8gL
8a-J
=47
(8qcc/
8bnL)
8gJ
(8qdd/
4cc)
=48
4bnt
16a-LL
16gJ
8fJ
=49
(8qa-/
2g)
=50
4.gg
16r
*>A1
(16g
=51
8.bnL)
(16gJk
8.ccL)
(16gJk
=52
8.ddL)
(16gJk
8.ee-L)
(16gJk
=53
2dd)
=54
8r
8g
8bnL
8ddJ
=55
(16ggLL
16ff#X
16ffn
16eenJJ
16ee-XLL
16ddJ
8ccJ)
=56
8bnL
8gJ
8bL
(8qdd/
8ccJ)
=57
2bnt
=58
8r
8a-
24gLL
24a-
24gJ
8fJ
=59
(8qg/
16fLL)
16enJ
8fJ
8gL
8a-J
=60
(16ddLL
16ccJ
8bnJ)
(16a-LL
16gJ
8a-J)
=61
(16ddLL
16ccJ
8bnJ)
(16a-LL
16gJ
8fJ)
=62
4f
8r
8ff
=63
(16ffLL
16ee-J
8ddJ)
(16ee-LL
16ddJ
8ccJ)
=64
(16ddLL
16ccJ
8bnJ)
28gLL
28a-
28b
28cc
28dd
28ee-
28ffJJ
=65
4gg
4dd
=66
4g
4r
==
*-
